icons/svgs/calendar-circle-minus-solid.svg

<svg width="24" height="24" viewBox="0 0 24 24" fill="none" xmlns="http://www.w3.org/2000/svg">
<path d="M6.25 2C6.91406 2 7.5 2.58594 7.5 3.25V4.5H12.5V3.25C12.5 2.58594 13.0469 2 13.75 2C14.4141 2 15 2.58594 15 3.25V4.5H16.875C17.8906 4.5 18.75 5.35938 18.75 6.375V8.25H1.25V6.375C1.25 5.35938 2.07031 4.5 3.125 4.5H5V3.25C5 2.58594 5.54688 2 6.25 2ZM11.25 16.375C11.25 18.7188 12.3828 20.7891 14.1406 22H3.125C2.07031 22 1.25 21.1797 1.25 20.125V9.5H17.5V9.53906C13.9844 9.85156 11.25 12.8203 11.25 16.375ZM23.75 16.375C23.75 18.4062 22.6562 20.2422 20.9375 21.2578C19.1797 22.2734 17.0312 22.2734 15.3125 21.2578C13.5547 20.2422 12.5 18.4062 12.5 16.375C12.5 14.3828 13.5547 12.5469 15.3125 11.5312C17.0312 10.5156 19.1797 10.5156 20.9375 11.5312C22.6562 12.5469 23.75 14.3828 23.75 16.375ZM21.25 16.375C21.25 16.0625 20.9375 15.75 20.625 15.75H15.625C15.2734 15.75 15 16.0625 15 16.375C15 16.7266 15.2734 17 15.625 17H20.625C20.9375 17 21.25 16.7266 21.25 16.375Z" fill="black"/>
</svg>

<svg xmlns="http://www.w3.org/2000/svg" width="24" height="24" fill="currentColor" class="icon-calendar-circle-minus-solid" viewBox="0 0 24 24">
  <mask id="a" width="23" height="21" x="1" y="2" maskUnits="userSpaceOnUse" style="mask-type:alpha">
    <path d="M6.25 2c.664 0 1.25.586 1.25 1.25V4.5h5V3.25c0-.664.547-1.25 1.25-1.25.664 0 1.25.586 1.25 1.25V4.5h1.875c1.016 0 1.875.86 1.875 1.875V8.25H1.25V6.375c0-1.016.82-1.875 1.875-1.875H5V3.25C5 2.586 5.547 2 6.25 2m5 14.375c0 2.344 1.133 4.414 2.89 5.625H3.126a1.85 1.85 0 0 1-1.875-1.875V9.5H17.5v.04a6.876 6.876 0 0 0-6.25 6.835m12.5 0c0 2.031-1.094 3.867-2.812 4.883-1.758 1.015-3.907 1.015-5.625 0a5.6 5.6 0 0 1-2.813-4.883 5.58 5.58 0 0 1 2.813-4.844c1.718-1.015 3.867-1.015 5.624 0 1.72 1.016 2.813 2.852 2.813 4.844m-2.5 0c0-.312-.312-.625-.625-.625h-5a.64.64 0 0 0-.625.625c0 .352.273.625.625.625h5a.64.64 0 0 0 .625-.625"/>
  </mask>
  <g mask="url(#a)">
    <path d="M0 0h24v24H0z"/>
  </g>
</svg>
